X:1
T:O du Guds Lam
T:439 O du Guds Lam a3
T:Miserere ad modum Byrd
T:Arr. Eyolf Østrem
T:N.F.S. Grundtvig 1837
C:EØ
%%score [ 1 2 3 ]
L:1/8
M:6/4
K:D
V:1 treble nm="S" snm="S."
V:2 treble nm="A" snm="A."
V:3 bass nm="B" snm="B."
V:1
 F4 E2 F2 G4 | z2 F2 B2 B2 A4 | z2 A2 d4 c2 B2- | B2 A2 ^G4 A4 | z2 A2 B4 A2 G2- | %5
w: O du Guds Lam,|med kor- sets skam,|du bar al ver-|* dens syn- der|der- fra al trøst|
w: ||||der- med al fred|
w: ||||der- fra vort liv|
 G2 F2 E4 F4 z2 F2 | A4 G4 F4 z2 F2 | A4 G4 | F8 |] %9
w: _ be- gyn- der mis-|kun- de- lig for-|barm du|dig.|
w: _ be- gyn- der af|kær- lig- hed giv|os din|fred.|
w: _ be- gyn- der; vor|død til trods op-|liv du|os!|
V:2
 D4 =C2 C2 B,4 | D4 E2 E2 C4 | D4 (B2 A2) G2 G2- | G2 F2 E4 C4- | C4 z2 D2 E3 D | %5
w: O du Guds Lam,|med kor- sets skam,|du bar * al ver-|* dens syn- der|_ der- fra al|
w: ||||* der- med al|
w: ||||* der- fra vort|
 D2 C2 B,4 ^A,4 z2 C2 | E4 D4 !courtesy!^C4 z2 C2 | (F2 E2) D4 | C8 |] %9
w: trøst be gyn- der mis-|kun- de- lig, for-|barm _ du|dig.|
w: fred be- gyn- der; af|kær- lig- hed giv|os _ din|fred!|
w: liv be- gyn- der; vor|død til trods op-|liv _ du|os!|
V:3
 A,4 A,2 A,2 G,4 | (_B,2 A,2) _A,4 G,4 | F,4 (G,2 F,2) E,2 D,2 | C,2 D,2 E,4 A,,2 C,2 | %4
w: O du Guds Lam,|med _ kor- sets|skam, du * bar al|ver- dens syn- der, der-|
w: |||* * * * der-|
w: |||* * * * der-|
 F,4 D,2 (G,3 A,) B,2 | (A,4 ^G,4) F,4 z2 A,2 | =C4 B,4 ^A,4 z2 =A,2 | D,4 E,4 | F,8 |] %9
w: fra al trøst _ be-|gyn- * der mis-|kun- de- lig, for-|barm du|dig.|
w: med al fred _ be-|gyn- * der; af|kær- lig- hed giv|os din|fred!|
w: fra vort liv _ be-|gyn- * der; vor|død til trods op-|liv du|os!|

